storage/app/icons/phosphoricons/bold/blueprint-bold.svg

<svg xmlns="http://www.w3.org/2000/svg" fill="currentColor" viewBox="0 0 256 256"><path d="M232 48H76v-8a12 12 0 0 0-12-12H48a36 36 0 0 0-36 36v112a36 36 0 0 0 36 36h184a12 12 0 0 0 12-12V60a12 12 0 0 0-12-12M36 64a12 12 0 0 1 12-12h4v88h-4a35.6 35.6 0 0 0-12 2.06Zm184 124H48a12 12 0 0 1 0-24h16a12 12 0 0 0 12-12V72h144Zm-116-52a12 12 0 0 0 0 24h12v4a12 12 0 0 0 24 0v-4h16v4a12 12 0 0 0 24 0v-4h12a12 12 0 0 0 0-24h-12v-12h12a12 12 0 0 0 0-24h-12v-4a12 12 0 0 0-24 0v4h-16v-4a12 12 0 0 0-24 0v4h-12a12 12 0 0 0 0 24h12v12Zm36-12h16v12h-16Z"/></svg>

<svg xmlns="http://www.w3.org/2000/svg" viewBox="0 0 256 256" fill="currentColor"><path d="M232,48H76V40A12,12,0,0,0,64,28H48A36,36,0,0,0,12,64V176a36,36,0,0,0,36,36H232a12,12,0,0,0,12-12V60A12,12,0,0,0,232,48ZM36,64A12,12,0,0,1,48,52h4v88H48a35.59,35.59,0,0,0-12,2.06ZM220,188H48a12,12,0,0,1,0-24H64a12,12,0,0,0,12-12V72H220ZM104,136a12,12,0,0,0,0,24h12v4a12,12,0,0,0,24,0v-4h16v4a12,12,0,0,0,24,0v-4h12a12,12,0,0,0,0-24H180V124h12a12,12,0,0,0,0-24H180V96a12,12,0,0,0-24,0v4H140V96a12,12,0,0,0-24,0v4H104a12,12,0,0,0,0,24h12v12Zm36-12h16v12H140Z"/></svg>
